svgs/sharp-thin/file-invoice.svg

<svg xmlns="http://www.w3.org/2000/svg" viewBox="0 0 384 512"><!--! Font Awesome Pro 6.6.0 by @fontawesome - https://fontawesome.com License - https://fontawesome.com/license (Commercial License) Copyright 2024 Fonticons, Inc. --><path d="M16 496L16 16l192 0 0 152 0 8 8 0 152 0 0 320L16 496zM224 22.6L361.4 160 224 160l0-137.4zM224 0L16 0 0 0 0 16 0 496l0 16 16 0 352 0 16 0 0-16 0-336L224 0zM64 64l0 16 8 0 80 0 8 0 0-16-8 0L72 64l-8 0zm0 64l0 16 8 0 80 0 8 0 0-16-8 0-80 0-8 0zM224 432l0 16 8 0 80 0 8 0 0-16-8 0-80 0-8 0zm80-192l0 96L80 336l0-96 224 0zM80 224l-16 0 0 16 0 96 0 16 16 0 224 0 16 0 0-16 0-96 0-16-16 0L80 224z"/></svg>

<svg xmlns="http://www.w3.org/2000/svg" viewBox="0 0 384 512"><!--! Font Awesome Pro 6.5.2 by @fontawesome - https://fontawesome.com License - https://fontawesome.com/license (Commercial License) Copyright 2024 Fonticons, Inc. --><path d="M16 496V16H208V168v8h8H368V496H16zM224 22.6L361.4 160H224V22.6zM224 0H16 0V16 496v16H16 368h16V496 160L224 0zM64 64V80h8 80 8V64h-8H72 64zm0 64v16h8 80 8V128h-8H72 64zM224 432v16h8 80 8V432h-8H232h-8zm80-192v96H80V240H304zM80 224H64v16 96 16H80 304h16V336 240 224H304 80z"/></svg>
